X: 27111
T: Miss Margaret Campbell (Saddell)
R: reel
M: 4/4
K: Amajor
c|:AecA ecae|fdec dBBc|AecA ecae|1 fdbe caac:|2 fdbe caae||
|:agae cAec|Bbba bffg|agae cAec|dfed cAAe|
agae cAec|Bbba bffg|afbg afed|ceBd cAA||

